icons/split-view-16.svg

<svg width="16" height="16" viewBox="0 0 16 16" fill="none" xmlns="http://www.w3.org/2000/svg">
<g clip-path="url(#clip0_4_123)">
<path d="M1.75 0H14.25C15.216 0 16 0.784 16 1.75V14.25C16 14.7141 15.8156 15.1592 15.4874 15.4874C15.1592 15.8156 14.7141 16 14.25 16H1.75C1.28587 16 0.840752 15.8156 0.512563 15.4874C0.184374 15.1592 0 14.7141 0 14.25V1.75C0 0.784 0.784 0 1.75 0ZM1.5 1.75V14.25C1.5 14.388 1.612 14.5 1.75 14.5H7.5V1.5H1.75C1.6837 1.5 1.62011 1.52634 1.57322 1.57322C1.52634 1.62011 1.5 1.6837 1.5 1.75ZM9 14.5H14.25C14.3163 14.5 14.3799 14.4737 14.4268 14.4268C14.4737 14.3799 14.5 14.3163 14.5 14.25V1.75C14.5 1.6837 14.4737 1.62011 14.4268 1.57322C14.3799 1.52634 14.3163 1.5 14.25 1.5H9V14.5Z" fill="black"/>
</g>
<defs>
<clipPath id="clip0_4_123">
<rect width="16" height="16" fill="white"/>
</clipPath>
</defs>
</svg>

<svg xmlns="http://www.w3.org/2000/svg" width="16" height="16" viewBox="0 0 16 16"><path d="M1.75 0h12.5C15.216 0 16 .784 16 1.75v12.5c0 .464-.184.909-.513 1.237A1.746 1.746 0 0 1 14.25 16H1.75c-.464 0-.909-.184-1.237-.513A1.746 1.746 0 0 1 0 14.25V1.75C0 .784.784 0 1.75 0ZM1.5 1.75v12.5c0 .138.112.25.25.25H7.5v-13H1.75a.25.25 0 0 0-.25.25ZM9 14.5h5.25a.25.25 0 0 0 .25-.25V1.75a.25.25 0 0 0-.25-.25H9Z"/></svg>
